svg/support.svg

<svg xmlns="http://www.w3.org/2000/svg" viewBox="0 0 32 32" enable-background="new 0 0 32 32"><path d="M 21 3 C 16.570085 3 13 6.5700855 13 11 C 13 11.234522 13.03701 11.552859 13.0625 11.84375 L 4.5 20.40625 C 2.5317152 22.374535 2.5317152 25.531715 4.5 27.5 C 6.4682848 29.468285 9.6254652 29.468285 11.59375 27.5 L 20.15625 18.9375 C 20.447141 18.962993 20.765478 19 21 19 C 25.429915 19 29 15.429915 29 11 C 29 9.6333333 28.648022 8.3664396 28.0625 7.3125 L 27.4375 6.15625 L 26.5 7.09375 L 22.1875 11.375 L 20.625 9.8125 L 24.90625 5.5 L 25.84375 4.5625 L 24.6875 3.9375 C 23.63356 3.351978 22.366667 3 21 3 z M 21 5 C 21.485935 5 21.848238 5.208554 22.28125 5.3125 L 18.5 9.09375 L 17.78125 9.8125 L 18.5 10.5 L 21.5 13.5 L 22.1875 14.21875 L 22.90625 13.5 L 26.6875 9.71875 C 26.791446 10.151762 27 10.514065 27 11 C 27 14.370085 24.370085 17 21 17 C 20.6 17 20.279071 16.999455 20.03125 16.9375 L 19.5 16.78125 L 19.09375 17.1875 L 10.1875 26.09375 C 8.9557848 27.325465 7.1379652 27.325465 5.90625 26.09375 L 5.875 26.0625 C 4.6754069 24.831406 4.6853049 23.033445 5.90625 21.8125 L 14.8125 12.90625 L 15.21875 12.5 L 15.0625 11.96875 C 15.000545 11.720929 15 11.4 15 11 C 15 7.6299145 17.629915 5 21 5 z" color="#000" overflow="visible" enable-background="accumulate"/></svg>

<svg xmlns="http://www.w3.org/2000/svg" viewBox="0 0 32 32"><path style="text-indent:0;text-align:start;line-height:normal;text-transform:none;block-progression:tb;-inkscape-font-specification:Bitstream Vera Sans" d="M21 3c-4.43 0-8 3.57-8 8 0 .235.037.553.063.844L4.5 20.406c-1.968 1.97-1.968 5.126 0 7.094s5.125 1.968 7.094 0l8.562-8.563c.29.026.61.063.844.063 4.43 0 8-3.57 8-8 0-1.367-.352-2.634-.938-3.688l-.625-1.156-.937.938-4.313 4.28-1.562-1.562 4.28-4.312.94-.938-1.157-.625C23.634 3.353 22.367 3 21 3zm0 2c.486 0 .848.21 1.28.313l-3.78 3.78-.72.72.72.687 3 3 .688.72.718-.72 3.782-3.78c.103.432.312.794.312 1.28 0 3.37-2.63 6-6 6-.4 0-.72 0-.97-.063l-.53-.156-.406.407-8.907 8.907c-1.23 1.23-3.05 1.23-4.28 0l-.032-.032c-1.2-1.23-1.19-3.03.03-4.25l8.907-8.906.407-.406-.158-.53c-.06-.25-.062-.57-.062-.97 0-3.37 2.63-6 6-6z" color="#000" overflow="visible" font-family="Bitstream Vera Sans"/></svg>
